lib/assets/images/service_computer.svg

<svg width="40" height="40" viewBox="0 0 40 40" fill="none" xmlns="http://www.w3.org/2000/svg">
<g clip-path="url(#clip0_3_3460)">
<path fill-rule="evenodd" clip-rule="evenodd" d="M20 0.0431881C31.039 0.0431881 40 8.99455 40 20.0216C40 31.0486 31.039 40 20 40C8.96104 40 0 31.0486 0 20.0216C0 8.99455 8.96104 0.0431881 20 0.0431881V0.0431881Z" fill="#FF8515"/>
<path fill-rule="evenodd" clip-rule="evenodd" d="M13.5256 15.2699C13.6933 13.76 13.7772 13.005 14.1255 12.4353C14.4323 11.9334 14.8799 11.5328 15.4126 11.2832C16.0174 11 16.777 11 18.2962 11H21.7038C23.223 11 23.9826 11 24.5874 11.2832C25.1201 11.5328 25.5677 11.9334 25.8745 12.4353C26.2228 13.005 26.3067 13.76 26.4744 15.2699L27.2039 21.835V21.835C27.3064 22.7574 27.3576 23.2185 27.2093 23.5755C27.079 23.889 26.8463 24.1491 26.5491 24.3132C26.2107 24.5 25.7466 24.5 24.8186 24.5H15.1814C14.2534 24.5 13.7893 24.5 13.4509 24.3132C13.1537 24.1491 12.921 23.889 12.7907 23.5755C12.6424 23.2185 12.6936 22.7574 12.7961 21.835L13.5256 15.2699ZM16.4252 20.2401C16.3963 20.5147 16.5966 20.7651 16.8722 20.748C17.0975 20.7341 17.3211 20.6947 17.5386 20.6303C17.9163 20.5184 18.2683 20.3332 18.5745 20.0852C18.8806 19.8373 19.135 19.5315 19.323 19.1853C19.3967 19.0495 19.4597 18.9085 19.5114 18.7637C19.6592 18.835 19.8249 18.875 20 18.875C20.1751 18.875 20.3409 18.835 20.4887 18.7636C20.5405 18.9085 20.6035 19.0495 20.6772 19.1853C20.8652 19.5315 21.1196 19.8373 21.4257 20.0852C21.7319 20.3332 22.0839 20.5184 22.4616 20.6303C22.6791 20.6947 22.9026 20.7341 23.128 20.748C23.4036 20.7651 23.6039 20.5147 23.575 20.2401L23.3137 17.7538L23.0524 15.2675C23.0235 14.9929 22.7755 14.7896 22.5095 14.8636C22.292 14.9241 22.0815 15.0091 21.8822 15.1173C21.536 15.3053 21.2302 15.5597 20.9822 15.8658C20.7706 16.1272 20.6047 16.4219 20.4911 16.7375C20.3427 16.6654 20.1761 16.625 20 16.625C19.824 16.625 19.6575 16.6654 19.5091 16.7375C19.3955 16.4219 19.2296 16.1272 19.0179 15.8658C18.77 15.5597 18.4642 15.3053 18.118 15.1173C17.9187 15.0091 17.7082 14.9241 17.4907 14.8636C17.2247 14.7896 16.9767 14.9929 16.9478 15.2675L16.6865 17.7538L16.4252 20.2401ZM13 26C11.8954 26 11 26.8954 11 28V29H29V28C29 26.8954 28.1046 26 27 26H13Z" fill="white"/>
</g>
<defs>
<clipPath id="clip0_3_3460">
<rect width="40" height="40" fill="white"/>
</clipPath>
</defs>
</svg>

<svg width="40" height="40" fill="none" xmlns="http://www.w3.org/2000/svg"><g clip-path="url(#clip0_3_3460)" fill-rule="evenodd" clip-rule="evenodd"><path d="M20 .043c11.039 0 20 8.952 20 19.979S31.039 40 20 40 0 31.049 0 20.022C0 8.995 8.961.043 20 .043z" fill="#FF8515"/><path d="M13.526 15.27c.167-1.51.251-2.265.6-2.835a3 3 0 0 1 1.287-1.152C16.017 11 16.777 11 18.296 11h3.408c1.519 0 2.279 0 2.883.283a3 3 0 0 1 1.288 1.152c.348.57.432 1.325.6 2.835l.729 6.565c.102.922.154 1.383.005 1.74a1.5 1.5 0 0 1-.66.738c-.338.187-.802.187-1.73.187H15.18c-.928 0-1.392 0-1.73-.187a1.5 1.5 0 0 1-.66-.737c-.149-.358-.097-.819.005-1.741l.73-6.565zm2.9 4.97c-.03.275.17.525.446.508a2.998 2.998 0 0 0 2.64-1.984 1.121 1.121 0 0 0 .977 0 3.004 3.004 0 0 0 2.639 1.984c.276.017.476-.233.447-.508l-.261-2.486-.262-2.487c-.029-.274-.276-.477-.543-.403a3 3 0 0 0-2.018 1.873 1.12 1.12 0 0 0-.982 0 2.999 2.999 0 0 0-2.018-1.873c-.266-.074-.514.129-.543.403l-.262 2.487-.26 2.486zM13 26a2 2 0 0 0-2 2v1h18v-1a2 2 0 0 0-2-2H13z" fill="#fff"/></g><defs><clipPath id="clip0_3_3460"><path fill="#fff" d="M0 0h40v40H0z"/></clipPath></defs></svg>
